!!!COM: Corelli, Arcangelo
!!!OPR: Sonata da camera
!!!OPS: 4
!!!ONM: 4
!!!OMV: 2
!!!OTL: Corrente
!!!OMD: Allegro
**kern	**fb	**kern	**kern	**kern
*part4	*part4	*part3	*part2	*part1
*staff4	*	*staff3	*staff2	*staff1
*I"Organo	*	*I"Violone	*I"Violino II	*I"Violino I
*clefF4	*	*clefF4	*clefG2	*clefG2
*k[f#c#]	*	*k[f#c#]	*k[f#c#]	*k[f#c#]
*D:	*	*D:	*D:	*D:
*M3/4	*	*M3/4	*M3/4	*M3/4
=1	=1	=1	=1	=1
8D	.	8D	8f#	8a
=	=	=	=	=
2.D	.	2.D	4.f#	4.a
.	.	.	8f#	8a
.	.	.	4a	4dd
=	=	=	=	=
4D	.	4D	4dd	4ff#
4A	.	4A	4.cc#	4.ee
4AA	.	4AA	.	.
.	.	.	8cc#	8aa
=	=	=	=	=
2D	.	2D	4dd	4ff#
.	.	.	4a	4dd
4C#	6	4C#	4ee	[4aa
=	=	=	=	=
2BB	7	2BB	2dd	4aa]
.	6	.	.	8ggL
.	.	.	.	8ff#J
4E	7	4E	8cc#L	[4gg
.	.	.	8bJ	.
=	=	=	=	=
2AA	7	2AA	2cc#	4gg]
.	6	.	.	4cc#
4D	.	4D	4dd	[4ff#
=	=	=	=	=
2G	7	2G	4.b	4ff#]
.	6	.	.	8eeL
.	.	.	8b	8ddJ
8F#L	7	8F#L	8aL	[4ee
8EJ	.	8EJ	8gJ	.
=	=	=	=	=
2F#	7	2F#	2a	4ee]
.	6	.	.	4a
4FF#	.	4FF#	[4dd	4aa
=	=	=	=	=
4GG	6 5	4GG	4dd]	8bbL
.	.	.	.	8eeJ
2AA	5 4	2AA	2cc#	2ee
.	3	.	.	.
=	=	=	=	=
2D	.	2D	2dd	2dd
[4d	.	[4d	4dd	4ff#
=	=	=	=	=
4d]	4 2	4d]	2ee	4gg
2c#	6	2c#	.	4ee
.	.	.	4ee	4aa
=	=	=	=	=
2d	.	2d	2a	4ff#
.	.	.	.	4dd
[4c#	6	[4c#	[4a	4ee
=	=	=	=	=
4c#]	.	4c#]	4a]	4a
2B	#6\	2B	2g#X	4.dd
.	.	.	.	8ee
=	=	=	=	=
2A	.	2A	2a	4cc#
.	.	.	.	4a
4G#X	6	4G#X	4b	[4ee
=	=	=	=	=
2F#	7	2F#	2a	4ee]
.	6	.	.	4a
4BB	7	4BB	8bL	[4dd
.	.	.	8aJ	.
=	=	=	=	=
2E	7 #	2E	2g#X	4dd]
.	6	.	.	4g#X
4AA	7	4AA	4a	[4cc#
=	=	=	=	=
2D	7	2D	2f#	4cc#]
.	6	.	.	4f#
4D	.	4D	4f#	4b
=	=	=	=	=
2D	#4| 2	2D	2e	4g#X
.	.	.	.	4e
4C#	6	4C#	[4a	4ee
=	=	=	=	=
4D	.	4D	4a]	8ddL
.	.	.	.	8cc#J
2E	5 4	2E	4.a	4.b
.	#	.	.	.
.	.	.	8g#X	8ee
=	=	=	=	=
2AA	.	2AA	2a	2cc#
8r	.	8r	8r	8r
8A	.	8A	8cc#	8ee
==	==	==	==	==
2A	.	2A	4.cc#	4.ee
.	.	.	8cc#	8ee
4F#	6	4F#	4dd	4aa
=	=	=	=	=
4G	.	4G	4dd	4bb
2E	7	2E	4.dd	4.gg
.	6	.	.	.
.	.	.	8cc#	8aa
=	=	=	=	=
2D	.	2D	4dd	4ff#
.	.	.	4a	4dd
4d	.	4d	4dd	[4ff#
=	=	=	=	=
4G#X	7	4G#X	4b	4ff#]
2A#X	5	2A#X	2cc#	4.ee
.	.	.	.	8cc#
=	=	=	=	=
2B	.	2B	2f#	4dd
.	.	.	.	4b
4D	6	4D	4b	4ff#
=	=	=	=	=
4E	5	4E	4b	8eeL
.	.	.	.	8ddJ
2F#	5 4	2F#	4.b	2cc#
.	#	.	.	.
.	.	.	8a#X	.
=	=	=	=	=
4B	.	4B	2.b	2.b
4F#	.	4F#	.	.
4B	.	4B	.	.
=	=	=	=	=
2.G#X	6	2.G#X	4b	4ee
.	.	.	4ee	4b
.	.	.	4b	4ee
=	=	=	=	=
4A	.	4A	2.e	2.cc#
4E	.	4E	.	.
4A	.	4A	.	.
=	=	=	=	=
4F#	6	4F#	4dd	4aa
2C#	6	2C#	4aa	4ee
.	.	.	4ee	4aa
=	=	=	=	=
4D	.	4D	2.a	2.ff#
4AA	.	4AA	.	.
4D	.	4D	.	.
=	=	=	=	=
4GG	7	4GG	4b	4ff#
2GG#X	6	2GG#X	2b	4.ee
.	.	.	.	8dd
=	=	=	=	=
2AA	.	2AA	2e	4cc#
.	.	.	.	4a
4F#	6	4F#	4a	[4dd
=	=	=	=	=
2G	5	2G	2b	4dd]
.	6	.	.	4b
4E	#	4E	4g#X	[4ee
=	=	=	=	=
2A	5	2A	2cc#	4ee]
.	6	.	.	4cc#
4F#	.	4F#	4a	[4ff#
=	=	=	=	=
2B	5	2B	2dd	4ff#]
.	6	.	.	4dd
4E	.	4E	4b	[4gg
=	=	=	=	=
4A	7	4A	4cc#	4gg]
4B	5	4B	[2dd	4ff#
4F#	6	4F#	.	4aa
=	=	=	=	=
4G	6 5	4G	4dd]	8bbL
.	.	.	.	8eeJ
4A	.	4A	2cc#	2ee
4AA	.	4AA	.	.
=	=	=	=	=
2D	.	2D	2dd	2dd
4GG	.	4GG	4d	4b
=	=	=	=	=
2GG	4 2	2GG	2e	4c#
.	.	.	.	4A
4FF#	6	4FF#	[4f#	[4d
=	=	=	=	=
4GG	7	4GG	4f#]	4d]
2AA	5 4	2AA	4.e	4.d
.	3	.	.	.
.	.	.	8a	8c#
=	=	=	=	=
2DD	.	2DD	2f#	2d
8r	.	8r	8r	8r
=:|!	=:|!	=:|!	=:|!	=:|!
*-	*-	*-	*-	*-
!!!system-decoration: [{s1,s2},s3,s4]
!!!YEM: CC BY-NC-SA 4.0; CCARH; DCML